icons/1_Primary/Kindai University.svg

<svg width="1024" height="1024" viewBox="0 0 1024 1024" fill="none" xmlns="http://www.w3.org/2000/svg">
<g clip-path="url(#clip0_2_2607)">
<path d="M512 1024C794.77 1024 1024 794.77 1024 512C1024 229.23 794.77 0 512 0C229.23 0 0 229.23 0 512C0 794.77 229.23 1024 512 1024Z" fill="#728DBE"/>
<path d="M752.44 376.85C747.557 370.066 741.331 364.359 734.149 360.084C726.966 355.809 718.981 353.057 710.69 352C696.886 350.214 682.856 352.162 670.06 357.64C657.102 363.441 645.257 371.462 635.06 381.34C624.222 391.991 614.047 403.296 604.59 415.19L588.79 436.63L578.63 452.43L567.35 472.74L558.35 491.92L544.81 487.41L530.14 479.51C538.828 469.859 546.399 459.258 552.71 447.91C560.142 434.647 566.193 420.658 570.77 406.16C577.357 384.551 581.131 362.184 582 339.61C582.269 324.931 579.582 310.349 574.1 296.73C569.781 286.42 563.263 277.178 555 269.65C542.85 260.032 527.59 255.213 512.12 256.11C496.657 257.205 482.163 264.047 471.49 275.29C464.049 282.587 458.276 291.408 454.566 301.147C450.857 310.886 449.299 321.312 450 331.71H471.44C471.09 321.866 473.43 312.113 478.21 303.5C481.521 297.554 486.045 292.372 491.489 288.289C496.933 284.206 503.175 281.313 509.81 279.8C515.86 278.658 522.095 278.989 527.99 280.764C533.885 282.539 539.267 285.707 543.68 290C561.74 308.06 562.86 335.14 559.48 364.48C556.632 388.919 549.367 412.638 538.04 434.48C531.133 447.691 522.378 459.85 512.04 470.59C504.975 464.074 498.552 456.894 492.86 449.15C481.114 432.74 472.315 414.409 466.86 394.98C463.397 381.323 461.505 367.316 461.22 353.23H439.86C440.304 390.801 452.104 427.359 473.71 458.1C480.052 467.038 487.231 475.353 495.15 482.93C486.453 487.437 477.395 491.21 468.07 494.21C465.81 488.57 455.66 470.51 450.01 462.61C444.36 454.71 431.95 437.78 424.01 427.61C416.07 417.44 400.31 401.61 392.41 392.61C385.028 385.939 377.1 379.898 368.71 374.55C361.619 370.275 354.042 366.865 346.14 364.39C335.765 360.631 324.619 359.509 313.703 361.126C302.787 362.743 292.444 367.048 283.605 373.653C274.765 380.259 267.706 388.958 263.062 398.968C258.418 408.978 256.335 419.985 257 431C257.794 443.595 262.092 455.718 269.41 466C283.842 484.818 302.891 499.588 324.71 508.88C341.473 516.589 359.369 521.542 377.71 523.55C391.939 525.234 406.292 525.613 420.59 524.68C432.359 524.116 444.063 522.608 455.59 520.17C458.792 527.869 461.432 535.79 463.49 543.87C465.28 552.043 466.414 560.346 466.88 568.7C444.288 572.416 422.52 580.054 402.56 591.27C384.262 602.572 367.237 615.816 351.78 630.77C338.639 642.945 327.918 657.494 320.18 673.65C315.979 684.066 313.686 695.152 313.41 706.38C314.099 717.942 317.792 729.125 324.125 738.823C330.457 748.521 339.211 756.4 349.52 761.68C369.83 771.84 396.92 770.68 422.87 751.52C444.285 735.793 460.736 714.25 470.27 689.45C478.021 670.254 483.329 650.16 486.07 629.64C487.709 615.407 488.464 601.086 488.33 586.76C505.933 584.889 523.663 584.511 541.33 585.63C541.846 600.381 543.353 615.081 545.84 629.63C549.44 649.503 555.542 668.84 564 687.18C573.528 708.229 587.821 726.775 605.75 741.35C619.616 753.396 637.067 760.534 655.4 761.66C670.515 762.489 685.398 757.662 697.15 748.12C709.952 736.823 718.013 721.108 719.72 704.12C721.466 686.275 717.089 668.368 707.31 653.34C696.958 638.372 684.403 625.055 670.07 613.84C657.206 602.966 643.209 593.508 628.32 585.63C608.027 575.879 586.318 569.402 564 566.44C564.923 549.95 567.948 533.644 573 517.92L604.6 521.31C623.951 522.08 643.316 520.182 662.15 515.67C678.363 511.912 693.948 505.829 708.42 497.61C721.822 490.563 734.012 481.422 744.53 470.53C753.98 461.088 760.956 449.461 764.84 436.68C767.507 426.611 767.775 416.056 765.622 405.865C763.468 395.673 758.953 386.129 752.44 378M409.39 504.37C380.063 506.112 350.812 499.87 324.75 486.31C307.753 477.859 293.335 465.002 283 449.08C277.775 439.832 276.168 428.975 278.49 418.61C281.074 407.997 287.011 398.501 295.42 391.53C315.73 376.86 336.05 382.53 355.23 391.53C374.41 400.53 396.98 428.77 411.65 444.53C425.722 461.551 437.835 480.101 447.76 499.83C435.899 502.509 423.805 504.019 411.65 504.34M465.82 637.5C462.757 657.996 456.274 677.832 446.64 696.18C434.23 716.49 418.43 739.06 392.47 745.83C386.846 747.907 380.833 748.714 374.861 748.192C368.889 747.67 363.106 745.833 357.928 742.813C352.75 739.792 348.305 735.663 344.911 730.721C341.518 725.779 339.26 720.147 338.3 714.23C330.4 687.15 351.84 661.23 364.3 649.91C378.928 634.494 395.64 621.198 413.95 610.41C431.038 600.652 449.789 594.148 469.25 591.23C469.535 607.099 468.4 622.963 465.86 638.63M543.72 566.41C525.656 565.761 507.571 566.138 489.55 567.54C487.72 550.241 483.936 533.206 478.27 516.76C491.516 512.635 504.069 506.547 515.51 498.7C527.263 506.714 540.214 512.81 553.88 516.76C549.149 533.334 546.133 550.35 544.88 567.54M627.26 611.54C645.252 621.904 661.923 634.409 676.91 648.78C687.593 659.245 695.037 672.566 698.35 687.15C700.645 700.118 697.813 713.471 690.45 724.39C686.653 730.074 681.406 734.64 675.253 737.616C669.1 740.593 662.263 741.871 655.45 741.32C636.55 739.167 619.19 729.865 606.93 715.32C592.553 700.248 581.753 682.134 575.33 662.32C567.167 638.733 562.954 613.96 562.86 589C584.553 592.195 605.544 599.063 624.93 609.31M705 476.16C681.458 490.627 654.75 499.152 627.18 501C611.348 502.247 595.422 501.487 579.78 498.74C587.982 479.652 598.197 461.492 610.25 444.57L637.33 410.72C644.287 402.272 652.234 394.691 661 388.14C673.384 378.043 689.034 372.825 705 373.47C711.035 373.773 716.921 375.457 722.203 378.392C727.486 381.327 732.025 385.435 735.47 390.4C740.974 397.643 744.478 406.206 745.63 415.23C746.8 437.79 733.26 457 705 475" fill="white"/>
</g>
<defs>
<clipPath id="clip0_2_2607">
<rect width="1024" height="1024" fill="white"/>
</clipPath>
</defs>
</svg>

<svg xmlns="http://www.w3.org/2000/svg" viewBox="0 0 1024 1024">
   <circle cx="512" cy="512" r="512" style="fill:#00507e"/>
   <path d="M752.44 376.85A60.94 60.94 0 0 0 710.69 352a77.86 77.86 0 0 0-40.63 5.64 121.88 121.88 0 0 0-35 23.7 372.41 372.41 0 0 0-30.47 33.85l-15.8 21.44-10.16 15.8-11.28 20.31-9 19.18-13.54-4.51-14.67-7.9a172.66 172.66 0 0 0 22.57-31.6 222.31 222.31 0 0 0 18.06-41.75A262.93 262.93 0 0 0 582 339.61a109.46 109.46 0 0 0-7.9-42.88 76.74 76.74 0 0 0-19.1-27.08 63.19 63.19 0 0 0-42.88-13.54 62.07 62.07 0 0 0-40.63 19.18A72.22 72.22 0 0 0 450 331.71h21.44a54.17 54.17 0 0 1 6.77-28.21 48.52 48.52 0 0 1 31.6-23.7 38.37 38.37 0 0 1 33.87 10.2c18.06 18.06 19.18 45.14 15.8 74.48a203.12 203.12 0 0 1-21.44 70 156.87 156.87 0 0 1-26 36.11 150.08 150.08 0 0 1-19.18-21.44 173.78 173.78 0 0 1-26-54.17 185.07 185.07 0 0 1-5.64-41.75h-21.36a186.2 186.2 0 0 0 33.85 104.87 172.65 172.65 0 0 0 21.44 24.83 176.07 176.07 0 0 1-27.08 11.28c-2.26-5.64-12.41-23.7-18.06-31.6s-18.06-24.83-26-35-23.7-26-31.6-35a178.28 178.28 0 0 0-23.7-18.06 103.82 103.82 0 0 0-22.57-10.16A66.58 66.58 0 0 0 257 431a67.71 67.71 0 0 0 12.41 35 137.67 137.67 0 0 0 55.3 42.88 171.52 171.52 0 0 0 53 14.67 234.77 234.77 0 0 0 42.88 1.13 220.06 220.06 0 0 0 35-4.51 172.64 172.64 0 0 1 7.9 23.7 156.86 156.86 0 0 1 3.39 24.83 196.35 196.35 0 0 0-64.32 22.57 299.06 299.06 0 0 0-50.78 39.5 142.18 142.18 0 0 0-31.6 42.88 93.67 93.67 0 0 0-6.77 32.73 66.58 66.58 0 0 0 36.11 55.3c20.31 10.16 47.4 9 73.35-10.16a138.8 138.8 0 0 0 47.4-62.07 247.14 247.14 0 0 0 15.8-59.81 346.43 346.43 0 0 0 2.26-42.88 313.74 313.74 0 0 1 53-1.13 329.5 329.5 0 0 0 4.51 44A239.24 239.24 0 0 0 564 687.18a149 149 0 0 0 41.75 54.17 83.51 83.51 0 0 0 49.65 20.31 60.94 60.94 0 0 0 41.75-13.54 67.71 67.71 0 0 0 22.57-44 79 79 0 0 0-12.41-50.78 180.56 180.56 0 0 0-37.24-39.5 234.71 234.71 0 0 0-41.75-28.21A213.29 213.29 0 0 0 564 566.44a194.09 194.09 0 0 1 9-48.52l31.6 3.39a211 211 0 0 0 57.55-5.64 172.65 172.65 0 0 0 46.27-18.06 142.2 142.2 0 0 0 36.11-27.08 81.25 81.25 0 0 0 20.31-33.85 66.58 66.58 0 0 0-12.4-58.68M409.39 504.37a162.5 162.5 0 0 1-84.64-18.06A106.08 106.08 0 0 1 283 449.08a42.88 42.88 0 0 1-4.51-30.47 50.78 50.78 0 0 1 16.93-27.08c20.31-14.67 40.63-9 59.81 0s41.75 37.24 56.42 53a294.53 294.53 0 0 1 36.11 55.3 186.19 186.19 0 0 1-36.11 4.51m54.17 133.16a185.07 185.07 0 0 1-19.18 58.68c-12.41 20.31-28.21 42.88-54.17 49.65a40.62 40.62 0 0 1-54.17-31.6c-7.9-27.08 13.54-53 26-64.32a228 228 0 0 1 49.65-39.5 159.1 159.1 0 0 1 55.3-19.18 266.32 266.32 0 0 1-3.39 47.4m77.86-72.22a477.46 477.46 0 0 0-54.17 1.13 230.21 230.21 0 0 0-11.28-50.78 138.8 138.8 0 0 0 37.24-18.06 134.3 134.3 0 0 0 38.37 18.06 251.65 251.65 0 0 0-9 50.78m82.38 44a257.29 257.29 0 0 1 49.65 37.24 77.86 77.86 0 0 1 21.44 38.37 50.78 50.78 0 0 1-7.9 37.24 38.37 38.37 0 0 1-35 16.93 74.48 74.48 0 0 1-48.52-26 138.8 138.8 0 0 1-31.6-53A226.82 226.82 0 0 1 562.86 589a193 193 0 0 1 62.07 20.31M705 476.16A170.4 170.4 0 0 1 627.18 501a188.47 188.47 0 0 1-47.4-2.26 292.28 292.28 0 0 1 30.47-54.17l27.08-33.85A136.54 136.54 0 0 1 661 388.14a65.45 65.45 0 0 1 44-14.67 39.5 39.5 0 0 1 30.47 16.93 51.91 51.91 0 0 1 10.16 24.83C746.8 437.79 733.26 457 705 475" style="fill:#fff"/>
</svg>
